svg/csharp.svg

<svg viewBox="0 0 20 20" xmlns="http://www.w3.org/2000/svg">
<rect width="100%" height="100%" fill="#A178DB"/>
<path d="M3.9016 5.15875L8.84841 2.3139C9.19717 2.10841 9.59487 2 10 2C10.4051 2 10.8028 2.10841 11.1516 2.3139L16.0984 5.15875C16.4497 5.36094 16.7412 5.65205 16.9435 6.00261C17.1457 6.35318 17.2514 6.75076 17.25 7.15514V12.8449C17.2514 13.2492 17.1457 13.6468 16.9435 13.9974C16.7412 14.348 16.4497 14.6391 16.0984 14.8412L11.1516 17.6861C10.8028 17.8916 10.4051 18 10 18C9.59487 18 9.19717 17.8916 8.84841 17.6861L3.9016 14.8213C3.55027 14.6191 3.25875 14.328 3.05654 13.9774C2.85432 13.6269 2.74858 13.2293 2.75001 12.8249V7.14516C2.75034 6.74247 2.85692 6.34695 3.05905 5.99829C3.26118 5.64963 3.55175 5.3601 3.9016 5.15875V5.15875ZM12.0729 11.1479C11.8663 11.5147 11.5662 11.8204 11.2028 12.0343C10.8395 12.2481 10.4259 12.3624 10.004 12.3656C9.58212 12.3688 9.16686 12.2607 8.80035 12.0524C8.43384 11.844 8.12909 11.5428 7.91701 11.1792C7.70492 10.8156 7.59303 10.4026 7.59267 9.982C7.59232 9.56142 7.70351 9.14822 7.91498 8.78428C8.12645 8.42033 8.43069 8.11859 8.79685 7.90962C9.16301 7.70065 9.57808 7.59188 10 7.59435C10.3959 7.59021 10.7865 7.68485 11.1363 7.86965C11.4861 8.05446 11.784 8.32355 12.0028 8.65244C12.0397 8.69419 12.0701 8.74131 12.0929 8.79218L14.2158 7.57439C13.6823 6.65334 12.8589 5.93351 11.8732 5.52651C10.8875 5.11952 9.79462 5.04811 8.76405 5.32338C7.73349 5.59864 6.82284 6.20518 6.17334 7.04893C5.52384 7.89268 5.17179 8.92649 5.17179 9.99002C5.17179 11.0535 5.52384 12.0874 6.17334 12.9311C6.82284 13.7749 7.73349 14.3814 8.76405 14.6567C9.79462 14.9319 10.8875 14.8605 11.8732 14.4535C12.8589 14.0465 13.6823 13.3267 14.2158 12.4056L12.0729 11.1479ZM13.7351 9.58076H13.2945L13.2345 10.1198H13.6751L13.7351 9.58076ZM13.1944 10.4991H13.635L13.5749 11.1679H14.0055L14.0756 10.4991H14.4461V10.1198H14.1157V9.58076H14.4962V9.24137H14.1557L14.2258 8.63247H13.8253L13.7652 9.24137H13.3246L13.3847 8.63247H13.0041L12.9441 9.24137H12.5535V9.62069H12.904L12.8539 10.1597H12.4534V10.539H12.8139L12.7438 11.2078H13.1443L13.1944 10.4991Z" fill="white"/>
</svg>

<svg xmlns="http://www.w3.org/2000/svg" viewBox="0 0 20 20">
  <rect width="100%" height="100%" fill="#A178DB"/>
  <path fill="#fff" d="M3.9 5.16 8.85 2.3a2.27 2.27 0 0 1 2.3 0l4.95 2.85a2.3 2.3 0 0 1 1.15 2v5.68a2.3 2.3 0 0 1-1.15 2l-4.95 2.85a2.27 2.27 0 0 1-2.3 0L3.9 14.82a2.3 2.3 0 0 1-1.15-2V7.15a2.29 2.29 0 0 1 1.15-2Zm8.17 5.99a2.39 2.39 0 1 1-.93-3.28 2.37 2.37 0 0 1 .95.92l2.13-1.22a4.84 4.84 0 1 0-5.46 7.09 4.86 4.86 0 0 0 5.46-2.25l-2.15-1.26Zm1.67-1.57h-.45l-.06.54h.45l.06-.54Zm-.55.92h.45l-.07.67h.44l.07-.67h.37v-.38h-.33v-.54h.38v-.34h-.34l.07-.6h-.4l-.06.6h-.45l.06-.6H13l-.06.6h-.39v.38h.35l-.05.54h-.4v.38h.36l-.07.67h.4l.05-.71Z"/>
</svg>
